X: 93
T: Thomas Burk
%R: reel, marc
B: "The Hibernian Muse" p.57
F: http://imslp.org/wiki/The_Hibernian_Muse_%28Various%29
Z: 2015 John Chambers <jc:trillian.mit.edu>
P: No. XCIII.
M: C|
L: 1/8
K: G
% - - - - - - - - - - - - - - - - - - - - - - - - - - - - -
V: 1
dc |\
{c}B2(AG) Bcd2 | D2 (G/A/G) G2c2 | BcdB edcB | A6 dc |\
B2d2 c2e2 | d2g2- gfed | efge (f/g/a) gf | g6 :|
|: ga |\
b2b2 b2b>c' | gagf e2fg | abag fgfe | d6 ef |\
g2G2 G2ed | e2E2 E2e2 | edcB cBAG | G6 Bc |
dedc BcdB | g2G2 G2EF | GAGF EFGE | AGFE D2GA |\
B4 BcBA | E2g2 f2ed | (eg)(ed) (BAB)d | Te6 {g}fe/f/ |
gagf edef | gafg e2 (d/e/f) | gfed edcB | {B2}A6 (A/B/c) |\
BcdB efge | fgaf gfgd | edcB cBAG | G6 :|
% - - - - - - - - - - - - - - - - - - - - - - - - - - - - -
V: 2 clef=bass middle=d
z2 |\
g2G2 g2G2 | d4 e2c2 | g4 c4 | d2D2 d4 |\
gabg edec | B2G2 A2B2 | c4 d4 | g2d2 G2 :|
|: z2 |\
g2G2 g2d2 | e4 c4 | f4 d4 | g2G2 g2z2 |\
B2b2 b2B2 | c2c'2 c'2c2 | B2G2 c2d2 | GBdg G4 |
d4 e4 | G4 g4 | e4 c4 | d2D2 d2z2 |\
g2G2 g2f2 | E2e2 d2z2 | e4 d4 | c2c'2 c2z2 |
B2G2 c3d | e2d2 c2z2 | e4 c4 | Ddcd D2z2 |\
g4 e4 | d4 e4 | c4 d4 | G6 :|

%%sep 2 1 500
%%sep 1 1 500

